src/assets/svgs/refactor/story-diamond.svg

<svg fill="none" height="222" viewBox="0 0 310 222" width="310" xmlns="http://www.w3.org/2000/svg"><path d="m310 108.809c-107.381 18.459-128.713 33.421-155.009 108.81-26.278-75.389-47.611-90.351-154.991-108.81 107.38-18.4577 128.713-33.4324 155.009-108.809 26.295 75.3766 47.611 90.3513 155.008 108.809z" fill="#ffdeb5"/><path d="m155.009 4.39308c25.254 72.37202 45.922 89.05852 142.577 106.60692 4.007-.73 8.134-1.46 12.414-2.191-107.381-18.4577-128.696-33.4324-154.991-108.809-26.296 75.3766-47.629 90.3513-155.009 108.809 4.28021.731 8.40695 1.461 12.4143 2.191 96.6547-17.5484 117.3397-34.2349 142.5767-106.60692z" fill="#ffdeb5"/><path d="m155.008 217.607c-25.255-72.372-45.923-89.059-142.5771-106.607-4.00735.73-8.13409 1.46-12.4142984 2.191 107.3803984 18.458 128.7133984 33.42 155.0083984 108.809 26.295-75.377 47.611-90.351 155.009-108.809-4.281-.731-8.407-1.461-12.415-2.191-96.654 17.548-117.339 34.235-142.577 106.607z" fill="#ff684b"/><g fill="#ffdeb5"><path d="m108.25 104.656c22.999 0 41.643-13.0873 41.643-29.2313s-18.644-29.2313-41.643-29.2313c-22.9986 0-41.6426 13.0873-41.6426 29.2313s18.644 29.2313 41.6426 29.2313z"/><path d="m231.992 96.6531c16.263-11.4156 16.263-29.9238 0-41.3394-16.262-11.4155-42.629-11.4155-58.891 0-16.262 11.4156-16.262 29.9238 0 41.3394 16.262 11.4159 42.629 11.4159 58.891 0z"/><path d="m217.7 169.187c21.248-6.178 31.338-23.277 22.537-38.192s-33.161-21.998-54.409-15.82-31.338 23.277-22.537 38.193c8.802 14.915 33.161 21.997 54.409 15.819z"/><path d="m148.695 145.678c3.189-15.988-12.69-30.764-35.466-33.002-22.7768-2.239-43.8258 8.907-47.0146 24.896-3.1889 15.988 12.6899 30.763 35.4666 33.002 22.776 2.238 43.825-8.908 47.014-24.896z"/></g></svg>

<svg width="310" height="222" viewBox="0 0 310 222" fill="none" xmlns="http://www.w3.org/2000/svg">
<g style="mix-blend-mode:multiply">
<path d="M310 108.809C202.619 127.268 181.287 142.23 154.991 217.619C128.713 142.23 107.38 127.268 0 108.809C107.38 90.3513 128.713 75.3766 155.009 0C181.304 75.3766 202.62 90.3513 310.017 108.809H310Z" fill="#FFDEB5"/>
</g>
<g style="mix-blend-mode:multiply">
<path d="M155.009 4.39308C180.263 76.7651 200.931 93.4516 297.586 111C301.593 110.27 305.72 109.54 310 108.809C202.619 90.3513 181.304 75.3766 155.009 0C128.713 75.3766 107.38 90.3513 0 108.809C4.28021 109.54 8.40695 110.27 12.4143 111C109.069 93.4516 129.754 76.7651 154.991 4.39308H155.009Z" fill="#FFDEB5"/>
</g>
<path d="M155.008 217.607C129.753 145.235 109.085 128.548 12.4309 111C8.42355 111.73 4.29681 112.46 0.0166016 113.191C107.397 131.649 128.73 146.611 155.025 222C181.32 146.623 202.636 131.649 310.034 113.191C305.753 112.46 301.627 111.73 297.619 111C200.965 128.548 180.28 145.235 155.042 217.607H155.008Z" fill="#FF684B"/>
<g style="mix-blend-mode:multiply">
<path d="M108.25 104.656C131.249 104.656 149.893 91.5687 149.893 75.4247C149.893 59.2807 131.249 46.1934 108.25 46.1934C85.2514 46.1934 66.6074 59.2807 66.6074 75.4247C66.6074 91.5687 85.2514 104.656 108.25 104.656Z" fill="#FFDEB5"/>
</g>
<g style="mix-blend-mode:multiply">
<path d="M231.992 96.6531C248.255 85.2375 248.255 66.7293 231.992 55.3137C215.73 43.8982 189.363 43.8982 173.101 55.3137C156.839 66.7293 156.839 85.2375 173.101 96.6531C189.363 108.069 215.73 108.069 231.992 96.6531Z" fill="#FFDEB5"/>
</g>
<g style="mix-blend-mode:multiply">
<path d="M217.7 169.187C238.948 163.009 249.038 145.91 240.237 130.995C231.436 116.08 207.076 108.997 185.828 115.175C164.58 121.353 154.49 138.452 163.291 153.368C172.093 168.283 196.452 175.365 217.7 169.187Z" fill="#FFDEB5"/>
</g>
<g style="mix-blend-mode:multiply">
<path d="M148.695 145.678C151.884 129.69 136.005 114.914 113.229 112.676C90.4522 110.437 69.4032 121.583 66.2144 137.572C63.0255 153.56 78.9043 168.335 101.681 170.574C124.457 172.812 145.506 161.666 148.695 145.678Z" fill="#FFDEB5"/>
</g>
</svg>
